report_00007_2020-12-11T15:55:29.892Z/meta/score/comparison/line/3_vs_4.svg

<svg width="640" height="500" xmlns="http://www.w3.org/2000/svg" xmlns:xlink="http://www.w3.org/1999/xlink"><path fill="#fff" d="M0 0h640v500H0z"/><defs><path id="d" stroke-width=".222" stroke="currentColor" d="M-1-1h2v2h-2z"/><path id="b" stroke-width=".222" stroke="currentColor" d="M0-1.33l-1.33 2h2.66z"/><path id="f" stroke-width=".222" stroke="currentColor" d="M0 1.33L1.265.411.782-1.067l-1.564-.009-.483 1.487z"/><use xlink:href="#b" id="c" stroke="currentColor" transform="rotate(180)"/><use xlink:href="#d" id="e" stroke="currentColor" transform="rotate(45)"/><circle id="a" stroke-width=".222" stroke="currentColor" cx="0" cy="0" r="1"/></defs><g fill="none" color="#000" stroke="currentColor"><path stroke="#000" d="M62.2 435.6h9m543.8 0h-9"/><text transform="translate(53.9 439.5)" stroke="none" fill="#000" font-family="Arial" font-size="12" text-anchor="end"><tspan>0.5</tspan></text></g><g fill="none" color="#000" stroke="currentColor"><path stroke="#000" d="M62.2 351.4h9m543.8 0h-9"/><text transform="translate(53.9 355.3)" stroke="none" fill="#000" font-family="Arial" font-size="12" text-anchor="end"><tspan>0.55</tspan></text></g><g fill="none" color="#000" stroke="currentColor"><path stroke="#000" d="M62.2 267.1h9m543.8 0h-9"/><text transform="translate(53.9 271)" stroke="none" fill="#000" font-family="Arial" font-size="12" text-anchor="end"><tspan>0.6</tspan></text></g><g fill="none" color="#000" stroke="currentColor"><path stroke="#000" d="M62.2 182.9h9m543.8 0h-9"/><text transform="translate(53.9 186.8)" stroke="none" fill="#000" font-family="Arial" font-size="12" text-anchor="end"><tspan>0.65</tspan></text></g><g fill="none" color="#000" stroke="currentColor"><path stroke="#000" d="M62.2 98.6h9m543.8 0h-9"/><text transform="translate(53.9 102.5)" stroke="none" fill="#000" font-family="Arial" font-size="12" text-anchor="end"><tspan>0.7</tspan></text></g><g fill="none" color="#000" stroke="currentColor"><path stroke="#000" d="M62.2 446v-9m0-418.9v9"/><text transform="translate(62.2 467.9)" stroke="none" fill="#000" font-family="Arial" font-size="12" text-anchor="middle"><tspan>0</tspan></text></g><g fill="none" color="#000" stroke="currentColor"><path stroke="#000" d="M118 446v-9m0-418.9v9"/><text transform="translate(118 467.9)" stroke="none" fill="#000" font-family="Arial" font-size="12" text-anchor="middle"><tspan>10</tspan></text></g><g fill="none" color="#000" stroke="currentColor"><path stroke="#000" d="M173.9 446v-9m0-418.9v9"/><text transform="translate(173.9 467.9)" stroke="none" fill="#000" font-family="Arial" font-size="12" text-anchor="middle"><tspan>20</tspan></text></g><g fill="none" color="#000" stroke="currentColor"><path stroke="#000" d="M229.7 446v-9m0-418.9v9"/><text transform="translate(229.7 467.9)" stroke="none" fill="#000" font-family="Arial" font-size="12" text-anchor="middle"><tspan>30</tspan></text></g><g fill="none" color="#000" stroke="currentColor"><path stroke="#000" d="M285.6 446v-9m0-418.9v9"/><text transform="translate(285.6 467.9)" stroke="none" fill="#000" font-family="Arial" font-size="12" text-anchor="middle"><tspan>40</tspan></text></g><g fill="none" color="#000" stroke="currentColor"><path stroke="#000" d="M341.4 446v-9m0-418.9v9"/><text transform="translate(341.4 467.9)" stroke="none" fill="#000" font-family="Arial" font-size="12" text-anchor="middle"><tspan>50</tspan></text></g><g fill="none" color="#000" stroke="currentColor"><path stroke="#000" d="M397.2 446v-9m0-418.9v9"/><text transform="translate(397.2 467.9)" stroke="none" fill="#000" font-family="Arial" font-size="12" text-anchor="middle"><tspan>60</tspan></text></g><g fill="none" color="#000" stroke="currentColor"><path stroke="#000" d="M453.1 446v-9m0-418.9v9"/><text transform="translate(453.1 467.9)" stroke="none" fill="#000" font-family="Arial" font-size="12" text-anchor="middle"><tspan>70</tspan></text></g><g fill="none" color="#000" stroke="currentColor"><path stroke="#000" d="M508.9 446v-9m0-418.9v9"/><text transform="translate(508.9 467.9)" stroke="none" fill="#000" font-family="Arial" font-size="12" text-anchor="middle"><tspan>80</tspan></text></g><g fill="none" color="#000" stroke="currentColor"><path stroke="#000" d="M564.7 446v-9m0-418.9v9"/><text transform="translate(564.7 467.9)" stroke="none" fill="#000" font-family="Arial" font-size="12" text-anchor="middle"><tspan>90</tspan></text></g><path stroke="#000" d="M62.2 18.1V446H615V18.1H62.2z" fill="none" color="#000"/><text transform="translate(279.8 485.9)" stroke="none" fill="#000" font-family="Arial" font-size="12" text-anchor="end" color="#000"><tspan>pages+cached+nointeractive</tspan></text><path stroke="#9400D3" d="M288.1 482h42.2M62.2 370.9l5.6-13.4 5.6 24.2 5.6-15.2 5.5 2.2 5.6 4.3 5.6-4.8 5.6 20.7 5.6 12.2 5.6 36.7 5.5-36 5.6 18.9 5.6-37.1 5.6 35.1 5.6-62.2L146 345l5.5 45.9 5.6-33.8 5.6 1.9 5.6 56.6 5.6-72.8 5.6 31.6 5.5-28.7 5.6 39.6 5.6 29.5 5.6-9.5 5.6-21.9 5.6-28.6 5.5 23.9 5.6-25.4 5.6 48.3 5.6-46.3 5.6-1.3 5.6 73.6 5.6-11.8 5.5-63 5.6 30 5.6-33.6 5.6 49.6 5.6-40.4 5.6-13.3 5.5 59.4 5.6-16.7 5.6-46.1 5.6 34.6 5.6 3.6 5.6-23.4 5.5 29.8 5.6-5 5.6 8.9 5.6-32.1 5.6 16 5.6 5.2 5.5 3.6 5.6 4.9 5.6-36.5 5.6 53.9 5.6-10.2 5.6-37 5.5-4.8 5.6 4.5 5.6 20.1 5.6-4.7 5.6-15.5 5.6 29.6 5.5 2.7 5.6-11.4 5.6 10.3 5.6 1.9 5.6-15.7 5.6-1.8 5.6 55.6 5.5-40.6 5.6 14.7 5.6-44.2 5.6 33.1 5.6-33.2 5.6 31 5.5 1.3 5.6-38.9 5.6 31.5 5.6-26.4 5.6 43.3 5.6-23.9 5.5 26.9 5.6-39.1 5.6 22.6L548 404l5.6-18 5.6-3 5.5-24.2 5.6 36.2 5.6-41.5 5.6.6 5.6 37.6 5.6 36.1 5.5-72.2 5.6 25.2 5.6-27.3 5.6 44.3" fill="none" color="#000"/><text transform="translate(554.4 485.9)" stroke="none" fill="#000" font-family="Arial" font-size="12" text-anchor="end" color="#000"><tspan>pages+cached+noadtech</tspan></text><path stroke="#009E73" d="M562.7 482h42.2M62.2 63.9l5.6-33 5.6-.1L79 50.4l5.5 5.2 5.6 9.2 5.6 20.4 5.6-35.2 5.6-19.4 5.6 54.9 5.5-29.6 5.6 8.7 5.6-33.4 5.6 39.1 5.6.2 5.6 15.3 5.5-30 5.6 14.5 5.6-14.8 5.6 37.9 5.6-62.8 5.6 36.8 5.5 18.4 5.6 7 5.6-61.9 5.6 54.8 5.6-17.9 5.6-6.3 5.5-5.8 5.6 8.8 5.6 27.9 5.6-61.9 5.6 19.5 5.6 35.5 5.6-55.1 5.5 34 5.6 6.2 5.6-40.2 5.6 33.8 5.6.3 5.6 21 5.5-29.9 5.6 3.5 5.6 2.8 5.6 8.5 5.6-14.6 5.6 14.7 5.5-39.5 5.6 24.7 5.6 29.8 5.6-35 5.6 35.2 5.6-2.5 5.5-27.6 5.6-5.4 5.6 14.5 5.6-14.2 5.6 32.3 5.6-26.1 5.5-30.4 5.6 23.9 5.6 6.4 5.6 7.6L414 31l5.6 19.4 5.5 20.3 5.6-11.5 5.6-28.8 5.6.1 5.6 31.2 5.6 13.9 5.6-20.2 5.5 4 5.6-.2 5.6-3.8 5.6 27.5 5.6 2.9 5.6-55.1 5.5 33.7 5.6-24.8 5.6 24.8 5.6 21 5.6-20.9 5.6 20.8 5.5-20.9 5.6-2.5 5.6-6.2 5.6 3.8 5.6 5 5.6 17.8 5.5-22.9 5.6-28.4 5.6 67.8 5.6-37.6 5.6.7 5.6-5.6 5.5 2.8 5.6-8.6 5.6 19.9 5.6-5.8" fill="none" color="#000"/><g fill="none" color="#000" stroke="currentColor"><path stroke="#000" d="M62.2 18.1V446H615V18.1H62.2z"/></g></svg>

<?xml version="1.0" encoding="utf-8"  standalone="no"?>
<svg 
 width="640" height="500"
 viewBox="0 0 640 500"
 xmlns="http://www.w3.org/2000/svg"
 xmlns:xlink="http://www.w3.org/1999/xlink"
>

<title>Gnuplot</title>
<desc>Produced by GNUPLOT 5.4 patchlevel 0 </desc>

<g id="gnuplot_canvas">

<rect x="0" y="0" width="640" height="500" fill="#ffffff"/>
<defs>

	<circle id='gpDot' r='0.5' stroke-width='0.5' stroke='currentColor'/>
	<path id='gpPt0' stroke-width='0.222' stroke='currentColor' d='M-1,0 h2 M0,-1 v2'/>
	<path id='gpPt1' stroke-width='0.222' stroke='currentColor' d='M-1,-1 L1,1 M1,-1 L-1,1'/>
	<path id='gpPt2' stroke-width='0.222' stroke='currentColor' d='M-1,0 L1,0 M0,-1 L0,1 M-1,-1 L1,1 M-1,1 L1,-1'/>
	<rect id='gpPt3' stroke-width='0.222' stroke='currentColor' x='-1' y='-1' width='2' height='2'/>
	<rect id='gpPt4' stroke-width='0.222' stroke='currentColor' fill='currentColor' x='-1' y='-1' width='2' height='2'/>
	<circle id='gpPt5' stroke-width='0.222' stroke='currentColor' cx='0' cy='0' r='1'/>
	<use xlink:href='#gpPt5' id='gpPt6' fill='currentColor' stroke='none'/>
	<path id='gpPt7' stroke-width='0.222' stroke='currentColor' d='M0,-1.33 L-1.33,0.67 L1.33,0.67 z'/>
	<use xlink:href='#gpPt7' id='gpPt8' fill='currentColor' stroke='none'/>
	<use xlink:href='#gpPt7' id='gpPt9' stroke='currentColor' transform='rotate(180)'/>
	<use xlink:href='#gpPt9' id='gpPt10' fill='currentColor' stroke='none'/>
	<use xlink:href='#gpPt3' id='gpPt11' stroke='currentColor' transform='rotate(45)'/>
	<use xlink:href='#gpPt11' id='gpPt12' fill='currentColor' stroke='none'/>
	<path id='gpPt13' stroke-width='0.222' stroke='currentColor' d='M0,1.330 L1.265,0.411 L0.782,-1.067 L-0.782,-1.076 L-1.265,0.411 z'/>
	<use xlink:href='#gpPt13' id='gpPt14' fill='currentColor' stroke='none'/>
	<filter id='textbox' filterUnits='objectBoundingBox' x='0' y='0' height='1' width='1'>
	  <feFlood flood-color='#FFFFFF' flood-opacity='1' result='bgnd'/>
	  <feComposite in='SourceGraphic' in2='bgnd' operator='atop'/>
	</filter>
	<filter id='greybox' filterUnits='objectBoundingBox' x='0' y='0' height='1' width='1'>
	  <feFlood flood-color='lightgrey' flood-opacity='1' result='grey'/>
	  <feComposite in='SourceGraphic' in2='grey' operator='atop'/>
	</filter>
</defs>
<g fill="none" color="#FFFFFF" stroke="black" stroke-width="1.00" stroke-linecap="butt" stroke-linejoin="miter">
</g>
<g fill="none" color="black" stroke="currentColor" stroke-width="1.00" stroke-linecap="butt" stroke-linejoin="miter">
	<path stroke='black'  d='M62.2,435.6 L71.2,435.6 M615.0,435.6 L606.0,435.6  '/>	<g transform="translate(53.9,439.5)" stroke="none" fill="black" font-family="Arial" font-size="12.00"  text-anchor="end">
		<text><tspan font-family="Arial" > 0.5</tspan></text>
	</g>
</g>
<g fill="none" color="black" stroke="currentColor" stroke-width="1.00" stroke-linecap="butt" stroke-linejoin="miter">
	<path stroke='black'  d='M62.2,351.4 L71.2,351.4 M615.0,351.4 L606.0,351.4  '/>	<g transform="translate(53.9,355.3)" stroke="none" fill="black" font-family="Arial" font-size="12.00"  text-anchor="end">
		<text><tspan font-family="Arial" > 0.55</tspan></text>
	</g>
</g>
<g fill="none" color="black" stroke="currentColor" stroke-width="1.00" stroke-linecap="butt" stroke-linejoin="miter">
	<path stroke='black'  d='M62.2,267.1 L71.2,267.1 M615.0,267.1 L606.0,267.1  '/>	<g transform="translate(53.9,271.0)" stroke="none" fill="black" font-family="Arial" font-size="12.00"  text-anchor="end">
		<text><tspan font-family="Arial" > 0.6</tspan></text>
	</g>
</g>
<g fill="none" color="black" stroke="currentColor" stroke-width="1.00" stroke-linecap="butt" stroke-linejoin="miter">
	<path stroke='black'  d='M62.2,182.9 L71.2,182.9 M615.0,182.9 L606.0,182.9  '/>	<g transform="translate(53.9,186.8)" stroke="none" fill="black" font-family="Arial" font-size="12.00"  text-anchor="end">
		<text><tspan font-family="Arial" > 0.65</tspan></text>
	</g>
</g>
<g fill="none" color="black" stroke="currentColor" stroke-width="1.00" stroke-linecap="butt" stroke-linejoin="miter">
	<path stroke='black'  d='M62.2,98.6 L71.2,98.6 M615.0,98.6 L606.0,98.6  '/>	<g transform="translate(53.9,102.5)" stroke="none" fill="black" font-family="Arial" font-size="12.00"  text-anchor="end">
		<text><tspan font-family="Arial" > 0.7</tspan></text>
	</g>
</g>
<g fill="none" color="black" stroke="currentColor" stroke-width="1.00" stroke-linecap="butt" stroke-linejoin="miter">
	<path stroke='black'  d='M62.2,446.0 L62.2,437.0 M62.2,18.1 L62.2,27.1  '/>	<g transform="translate(62.2,467.9)" stroke="none" fill="black" font-family="Arial" font-size="12.00"  text-anchor="middle">
		<text><tspan font-family="Arial" > 0</tspan></text>
	</g>
</g>
<g fill="none" color="black" stroke="currentColor" stroke-width="1.00" stroke-linecap="butt" stroke-linejoin="miter">
	<path stroke='black'  d='M118.0,446.0 L118.0,437.0 M118.0,18.1 L118.0,27.1  '/>	<g transform="translate(118.0,467.9)" stroke="none" fill="black" font-family="Arial" font-size="12.00"  text-anchor="middle">
		<text><tspan font-family="Arial" > 10</tspan></text>
	</g>
</g>
<g fill="none" color="black" stroke="currentColor" stroke-width="1.00" stroke-linecap="butt" stroke-linejoin="miter">
	<path stroke='black'  d='M173.9,446.0 L173.9,437.0 M173.9,18.1 L173.9,27.1  '/>	<g transform="translate(173.9,467.9)" stroke="none" fill="black" font-family="Arial" font-size="12.00"  text-anchor="middle">
		<text><tspan font-family="Arial" > 20</tspan></text>
	</g>
</g>
<g fill="none" color="black" stroke="currentColor" stroke-width="1.00" stroke-linecap="butt" stroke-linejoin="miter">
	<path stroke='black'  d='M229.7,446.0 L229.7,437.0 M229.7,18.1 L229.7,27.1  '/>	<g transform="translate(229.7,467.9)" stroke="none" fill="black" font-family="Arial" font-size="12.00"  text-anchor="middle">
		<text><tspan font-family="Arial" > 30</tspan></text>
	</g>
</g>
<g fill="none" color="black" stroke="currentColor" stroke-width="1.00" stroke-linecap="butt" stroke-linejoin="miter">
	<path stroke='black'  d='M285.6,446.0 L285.6,437.0 M285.6,18.1 L285.6,27.1  '/>	<g transform="translate(285.6,467.9)" stroke="none" fill="black" font-family="Arial" font-size="12.00"  text-anchor="middle">
		<text><tspan font-family="Arial" > 40</tspan></text>
	</g>
</g>
<g fill="none" color="black" stroke="currentColor" stroke-width="1.00" stroke-linecap="butt" stroke-linejoin="miter">
	<path stroke='black'  d='M341.4,446.0 L341.4,437.0 M341.4,18.1 L341.4,27.1  '/>	<g transform="translate(341.4,467.9)" stroke="none" fill="black" font-family="Arial" font-size="12.00"  text-anchor="middle">
		<text><tspan font-family="Arial" > 50</tspan></text>
	</g>
</g>
<g fill="none" color="black" stroke="currentColor" stroke-width="1.00" stroke-linecap="butt" stroke-linejoin="miter">
	<path stroke='black'  d='M397.2,446.0 L397.2,437.0 M397.2,18.1 L397.2,27.1  '/>	<g transform="translate(397.2,467.9)" stroke="none" fill="black" font-family="Arial" font-size="12.00"  text-anchor="middle">
		<text><tspan font-family="Arial" > 60</tspan></text>
	</g>
</g>
<g fill="none" color="black" stroke="currentColor" stroke-width="1.00" stroke-linecap="butt" stroke-linejoin="miter">
	<path stroke='black'  d='M453.1,446.0 L453.1,437.0 M453.1,18.1 L453.1,27.1  '/>	<g transform="translate(453.1,467.9)" stroke="none" fill="black" font-family="Arial" font-size="12.00"  text-anchor="middle">
		<text><tspan font-family="Arial" > 70</tspan></text>
	</g>
</g>
<g fill="none" color="black" stroke="currentColor" stroke-width="1.00" stroke-linecap="butt" stroke-linejoin="miter">
	<path stroke='black'  d='M508.9,446.0 L508.9,437.0 M508.9,18.1 L508.9,27.1  '/>	<g transform="translate(508.9,467.9)" stroke="none" fill="black" font-family="Arial" font-size="12.00"  text-anchor="middle">
		<text><tspan font-family="Arial" > 80</tspan></text>
	</g>
</g>
<g fill="none" color="black" stroke="currentColor" stroke-width="1.00" stroke-linecap="butt" stroke-linejoin="miter">
	<path stroke='black'  d='M564.7,446.0 L564.7,437.0 M564.7,18.1 L564.7,27.1  '/>	<g transform="translate(564.7,467.9)" stroke="none" fill="black" font-family="Arial" font-size="12.00"  text-anchor="middle">
		<text><tspan font-family="Arial" > 90</tspan></text>
	</g>
</g>
<g fill="none" color="black" stroke="currentColor" stroke-width="1.00" stroke-linecap="butt" stroke-linejoin="miter">
</g>
<g fill="none" color="black" stroke="currentColor" stroke-width="1.00" stroke-linecap="butt" stroke-linejoin="miter">
	<path stroke='black'  d='M62.2,18.1 L62.2,446.0 L615.0,446.0 L615.0,18.1 L62.2,18.1 Z  '/></g>
<g fill="none" color="black" stroke="currentColor" stroke-width="1.00" stroke-linecap="butt" stroke-linejoin="miter">
</g>
	<g id="gnuplot_plot_1" ><title>pages+cached+nointeractive</title>
<g fill="none" color="black" stroke="currentColor" stroke-width="1.00" stroke-linecap="butt" stroke-linejoin="miter">
	<g transform="translate(279.8,485.9)" stroke="none" fill="black" font-family="Arial" font-size="12.00"  text-anchor="end">
		<text><tspan font-family="Arial" >pages+cached+nointeractive</tspan></text>
	</g>
</g>
<g fill="none" color="black" stroke="currentColor" stroke-width="1.00" stroke-linecap="butt" stroke-linejoin="miter">
	<path stroke='rgb(148,   0, 211)'  d='M288.1,482.0 L330.3,482.0 M62.2,370.9 L67.8,357.5 L73.4,381.7 L79.0,366.5 L84.5,368.7 L90.1,373.0
		L95.7,368.2 L101.3,388.9 L106.9,401.1 L112.5,437.8 L118.0,401.8 L123.6,420.7 L129.2,383.6 L134.8,418.7
		L140.4,356.5 L146.0,345.0 L151.5,390.9 L157.1,357.1 L162.7,359.0 L168.3,415.6 L173.9,342.8 L179.5,374.4
		L185.0,345.7 L190.6,385.3 L196.2,414.8 L201.8,405.3 L207.4,383.4 L213.0,354.8 L218.5,378.7 L224.1,353.3
		L229.7,401.6 L235.3,355.3 L240.9,354.0 L246.5,427.6 L252.1,415.8 L257.6,352.8 L263.2,382.8 L268.8,349.2
		L274.4,398.8 L280.0,358.4 L285.6,345.1 L291.1,404.5 L296.7,387.8 L302.3,341.7 L307.9,376.3 L313.5,379.9
		L319.1,356.5 L324.6,386.3 L330.2,381.3 L335.8,390.2 L341.4,358.1 L347.0,374.1 L352.6,379.3 L358.1,382.9
		L363.7,387.8 L369.3,351.3 L374.9,405.2 L380.5,395.0 L386.1,358.0 L391.6,353.2 L397.2,357.7 L402.8,377.8
		L408.4,373.1 L414.0,357.6 L419.6,387.2 L425.1,389.9 L430.7,378.5 L436.3,388.8 L441.9,390.7 L447.5,375.0
		L453.1,373.2 L458.7,428.8 L464.2,388.2 L469.8,402.9 L475.4,358.7 L481.0,391.8 L486.6,358.6 L492.2,389.6
		L497.7,390.9 L503.3,352.0 L508.9,383.5 L514.5,357.1 L520.1,400.4 L525.7,376.5 L531.2,403.4 L536.8,364.3
		L542.4,386.9 L548.0,404.0 L553.6,386.0 L559.2,383.0 L564.7,358.8 L570.3,395.0 L575.9,353.5 L581.5,354.1
		L587.1,391.7 L592.7,427.8 L598.2,355.6 L603.8,380.8 L609.4,353.5 L615.0,397.8  '/></g>
	</g>
	<g id="gnuplot_plot_2" ><title>pages+cached+noadtech</title>
<g fill="none" color="black" stroke="currentColor" stroke-width="1.00" stroke-linecap="butt" stroke-linejoin="miter">
	<g transform="translate(554.4,485.9)" stroke="none" fill="black" font-family="Arial" font-size="12.00"  text-anchor="end">
		<text><tspan font-family="Arial" >pages+cached+noadtech</tspan></text>
	</g>
</g>
<g fill="none" color="black" stroke="currentColor" stroke-width="1.00" stroke-linecap="butt" stroke-linejoin="miter">
	<path stroke='rgb(  0, 158, 115)'  d='M562.7,482.0 L604.9,482.0 M62.2,63.9 L67.8,30.9 L73.4,30.8 L79.0,50.4 L84.5,55.6 L90.1,64.8
		L95.7,85.2 L101.3,50.0 L106.9,30.6 L112.5,85.5 L118.0,55.9 L123.6,64.6 L129.2,31.2 L134.8,70.3
		L140.4,70.5 L146.0,85.8 L151.5,55.8 L157.1,70.3 L162.7,55.5 L168.3,93.4 L173.9,30.6 L179.5,67.4
		L185.0,85.8 L190.6,92.8 L196.2,30.9 L201.8,85.7 L207.4,67.8 L213.0,61.5 L218.5,55.7 L224.1,64.5
		L229.7,92.4 L235.3,30.5 L240.9,50.0 L246.5,85.5 L252.1,30.4 L257.6,64.4 L263.2,70.6 L268.8,30.4
		L274.4,64.2 L280.0,64.5 L285.6,85.5 L291.1,55.6 L296.7,59.1 L302.3,61.9 L307.9,70.4 L313.5,55.8
		L319.1,70.5 L324.6,31.0 L330.2,55.7 L335.8,85.5 L341.4,50.5 L347.0,85.7 L352.6,83.2 L358.1,55.6
		L363.7,50.2 L369.3,64.7 L374.9,50.5 L380.5,82.8 L386.1,56.7 L391.6,26.3 L397.2,50.2 L402.8,56.6
		L408.4,64.2 L414.0,31.0 L419.6,50.4 L425.1,70.7 L430.7,59.2 L436.3,30.4 L441.9,30.5 L447.5,61.7
		L453.1,75.6 L458.7,55.4 L464.2,59.4 L469.8,59.2 L475.4,55.4 L481.0,82.9 L486.6,85.8 L492.2,30.7
		L497.7,64.4 L503.3,39.6 L508.9,64.4 L514.5,85.4 L520.1,64.5 L525.7,85.3 L531.2,64.4 L536.8,61.9
		L542.4,55.7 L548.0,59.5 L553.6,64.5 L559.2,82.3 L564.7,59.4 L570.3,31.0 L575.9,98.8 L581.5,61.2
		L587.1,61.9 L592.7,56.3 L598.2,59.1 L603.8,50.5 L609.4,70.4 L615.0,64.6  '/></g>
	</g>
<g fill="none" color="#FFFFFF" stroke="rgb(  0, 158, 115)" stroke-width="2.00" stroke-linecap="butt" stroke-linejoin="miter">
</g>
<g fill="none" color="black" stroke="currentColor" stroke-width="2.00" stroke-linecap="butt" stroke-linejoin="miter">
</g>
<g fill="none" color="black" stroke="black" stroke-width="1.00" stroke-linecap="butt" stroke-linejoin="miter">
</g>
<g fill="none" color="black" stroke="currentColor" stroke-width="1.00" stroke-linecap="butt" stroke-linejoin="miter">
	<path stroke='black'  d='M62.2,18.1 L62.2,446.0 L615.0,446.0 L615.0,18.1 L62.2,18.1 Z  '/></g>
<g fill="none" color="black" stroke="currentColor" stroke-width="1.00" stroke-linecap="butt" stroke-linejoin="miter">
</g>
</g>
</svg>
